X:281
T:
R:polska
S:Ur notboken i Gotlands fornsal.
O:Gotland
M:3/4
L:1/16
K:F
c2de f2a2 f2a2|f2ed dcde c4|c2de f2c2 A2c2|B2GB A2FA G2C2|
c2de f2a2 f2a2|f2ed dcde c4|c2de f2c2 A2c2|B2GE (G3 F) F4::
B2BA B2Bd d2c2|AcAc AcAc dcBA|B2BA B2Bd d2c2|AcAc AcAc dcBA|
c2de f2a2 f2a2|f2ed dcde c4|c2de f2a2 c2A2|cBAG GFGE F4:|

